img/main/bg-registr.svg

<svg width="276" height="673" viewBox="0 0 276 673" fill="none" xmlns="http://www.w3.org/2000/svg">
<path d="M94.3943 656.84H108.064L135.144 531.53L152.214 452.53C152.214 452.53 172.294 435.53 182.344 423.03C184.157 420.394 185.676 417.567 186.874 414.6C198.964 384.29 162.364 361.21 133.564 353.6C103.744 352.54 83.6442 349 73.7442 346.75C73.7442 347.24 73.7442 347.75 73.6642 348.23C66.5442 479.46 94.3943 656.84 94.3943 656.84V656.84Z" fill="#162F71"/>
<path d="M77.3841 671.19C77.7726 671.75 78.2938 672.204 78.9011 672.513C79.5085 672.822 80.1829 672.976 80.8641 672.96H105.404C105.968 672.963 106.525 672.847 107.041 672.62C107.557 672.393 108.018 672.059 108.396 671.641C108.774 671.222 109.059 670.729 109.232 670.193C109.406 669.657 109.465 669.09 109.404 668.53L109.304 667.65L108.094 656.84H94.4241L78.9241 664.93C78.3767 665.205 77.8955 665.596 77.5136 666.075C77.1316 666.554 76.858 667.11 76.7117 667.705C76.5653 668.3 76.5496 668.92 76.6657 669.521C76.7818 670.123 77.0269 670.692 77.3841 671.19V671.19Z" fill="url(#paint0_linear)"/>
<path d="M91.494 658.38L95.104 662.57C95.2272 662.714 95.3168 662.884 95.3665 663.067C95.4161 663.25 95.4245 663.441 95.391 663.628C95.3575 663.814 95.283 663.991 95.1729 664.145C95.0627 664.3 94.9197 664.428 94.754 664.52L93.164 665.41C92.9007 665.554 92.5953 665.6 92.301 665.542C92.0067 665.483 91.7423 665.323 91.554 665.09L88.054 660.79C87.9347 660.643 87.8495 660.471 87.8046 660.287C87.7597 660.103 87.7563 659.911 87.7946 659.725C87.8328 659.54 87.9119 659.365 88.0259 659.213C88.1399 659.062 88.2862 658.938 88.4541 658.85L89.934 658.08C90.1899 657.947 90.4831 657.904 90.7662 657.959C91.0493 658.013 91.3058 658.161 91.494 658.38V658.38Z" fill="white"/>
<path d="M85.9543 661.13L89.5643 665.31C89.697 665.455 89.7947 665.628 89.8498 665.816C89.9049 666.004 89.916 666.203 89.8822 666.396C89.8484 666.59 89.7706 666.773 89.6547 666.931C89.5389 667.089 89.3882 667.219 89.2143 667.31L87.6243 668.19C87.3621 668.335 87.0573 668.383 86.7631 668.327C86.4689 668.27 86.204 668.112 86.0143 667.88L82.5143 663.58C82.3948 663.432 82.3096 663.259 82.2647 663.074C82.2198 662.89 82.2163 662.697 82.2545 662.511C82.2928 662.324 82.3717 662.149 82.4858 661.996C82.5999 661.844 82.7462 661.719 82.9143 661.63L84.3943 660.87C84.6463 660.734 84.9363 660.686 85.2188 660.733C85.5012 660.78 85.76 660.92 85.9543 661.13V661.13Z" fill="white"/>
<path d="M104.424 671.57C104.422 672.045 104.511 672.517 104.684 672.96H105.404C105.968 672.963 106.525 672.847 107.041 672.62C107.557 672.392 108.018 672.059 108.396 671.64C108.774 671.222 109.059 670.729 109.232 670.193C109.406 669.657 109.465 669.09 109.404 668.53L109.304 667.65C109.028 667.589 108.747 667.559 108.464 667.56C107.464 667.555 106.499 667.926 105.759 668.597C105.018 669.269 104.557 670.194 104.464 671.19C104.434 671.31 104.424 671.44 104.424 671.57Z" fill="#60424C"/>
<path d="M77.3842 671.19C77.7726 671.75 78.2939 672.204 78.9012 672.513C79.5085 672.822 80.1829 672.976 80.8641 672.96H105.404C106.06 672.96 106.706 672.798 107.285 672.49C107.864 672.181 108.358 671.735 108.724 671.19H77.3842Z" fill="#60424C"/>
<path d="M135.145 531.53L152.214 452.53C152.214 452.53 172.295 435.53 182.345 423.03C184.157 420.394 185.676 417.567 186.875 414.6C176.185 395.45 168.634 408.6 131.354 399.81C131.354 399.83 143.435 448.67 135.145 531.53V531.53Z" fill="#CA754F"/>
<path d="M56.6245 171.86L63.6245 198.46L72.5444 232.17C74.3113 247.656 75.2526 263.224 75.3644 278.81C75.6344 297.81 75.1145 320.16 73.7045 346.75C83.6145 348.96 103.704 352.54 133.534 353.66C152.291 354.308 171.069 354.001 189.794 352.74C208.264 351.55 228.794 349.39 251.234 345.92C253.328 345.6 255.431 345.267 257.544 344.92C257.544 344.92 208.034 145.21 123.664 55.1001C123.664 55.1001 59.5244 68.2501 21.6644 95.5101C12.6044 118.55 25.7445 169.56 56.6245 171.86V171.86Z" fill="url(#paint1_linear)"/>
<path d="M90.1245 131.7C90.1245 131.7 75.4645 152.96 55.8045 159.83C55.2983 160.004 54.8348 160.284 54.4445 160.65C54.0542 161.016 53.7459 161.461 53.54 161.955C53.334 162.449 53.2351 162.982 53.2496 163.517C53.2642 164.052 53.392 164.578 53.6245 165.06C58.6245 175.29 71.2045 203.63 72.6245 232.17L90.1245 131.7Z" fill="#186CDB"/>
<path d="M63.6534 198.46L72.5735 232.17C74.3403 247.655 75.2816 263.224 75.3935 278.81C110.743 213.75 104.313 134.64 104.313 134.64L103.153 123.09L85.7435 159.16L63.6534 198.46Z" fill="url(#paint2_linear)"/>
<path d="M109.394 342.84C116.964 365.72 233.834 656.84 233.834 656.84H247.504L239.744 481.55L237.474 430.67C237.474 430.67 261.194 381.03 243.274 334.46C242.647 332.82 241.964 331.183 241.224 329.55C237.822 330.074 234.488 330.973 231.284 332.23C218.704 337.14 209.944 346.32 199.284 350.55C196.273 351.776 193.087 352.515 189.844 352.74C178.324 353.49 160.664 350.74 144.294 347.99C130.064 345.57 116.814 343.11 109.394 342.84V342.84Z" fill="#DEA379"/>
<path d="M184.743 367.9C235.923 382.14 237.433 430.67 237.433 430.67C237.433 430.67 261.153 381.03 243.233 334.46L231.233 332.23L216.813 329.55L199.253 350.55L184.743 367.9Z" fill="#CA754F"/>
<path d="M276 24C276 20.6863 273.314 18 270 18H109C105.686 18 103 20.6863 103 24V671H276V24Z" fill="white"/>
<path d="M90.1241 131.7L91.7241 121.83C92.1993 118.891 93.2837 116.084 94.9076 113.588C96.5316 111.093 98.6592 108.965 101.154 107.34L106.484 103.88C106.955 103.571 107.513 103.421 108.076 103.452C108.639 103.483 109.177 103.693 109.612 104.052C110.047 104.41 110.355 104.899 110.492 105.446C110.63 105.992 110.588 106.569 110.374 107.09L106.314 117.09C106.314 117.09 111.314 132.61 99.8841 138.17L90.1241 131.7Z" fill="#EFA08D"/>
<path d="M14.914 216.55C17.8092 224.152 21.1038 231.596 24.784 238.85C28.1233 238.762 31.4331 238.2 34.614 237.18C39.5159 235.59 43.8809 232.672 47.224 228.75C63.344 210.02 56.624 171.86 56.624 171.86C52.754 163.05 48.424 154.65 43.774 145.54C35.5334 129.275 28.1597 112.585 21.684 95.54C19.624 97.02 17.654 98.54 15.774 100.1C-8.31596 120.06 -1.70601 173.22 14.914 216.55Z" fill="url(#paint3_linear)"/>
<path d="M15.7443 100.1C17.6243 98.54 19.5942 97.02 21.6542 95.54C20.3842 96.61 -9.04576 122.45 19.9042 188.05C20.4557 189.288 21.2872 190.381 22.3331 191.243C23.3791 192.104 24.6108 192.711 25.9314 193.016C27.252 193.32 28.6252 193.314 29.9428 192.997C31.2605 192.68 32.4865 192.062 33.5243 191.19L56.6343 171.86L47.2343 228.75C43.8881 232.662 39.5284 235.575 34.6343 237.17L34.3542 237.25C33.8142 237.417 33.2643 237.577 32.7043 237.73L32.2142 237.85C31.5242 238.02 30.8242 238.17 30.0942 238.3C29.9742 238.3 29.8343 238.3 29.7043 238.36C29.0843 238.46 28.4543 238.54 27.8043 238.61L27.1943 238.68C26.4143 238.75 25.6243 238.81 24.8043 238.84C21.1241 231.586 17.8295 224.142 14.9343 216.54C-1.70573 173.22 -8.31574 120.06 15.7443 100.1Z" fill="url(#paint4_linear)"/>
<path d="M24.7442 238.85V238.92C25.7842 240.987 26.8509 242.987 27.9442 244.92C35.6342 258.77 54.6942 258.92 63.8642 246.02C67.021 241.57 69.903 236.932 72.4942 232.13C83.1442 212.54 91.3742 187.13 97.2442 154.02C98.1509 148.9 99.0042 143.597 99.8042 138.11L90.0442 131.66C81.2539 146.862 69.9232 160.446 56.5442 171.82C55.8842 172.38 55.2042 172.93 54.5442 173.47C34.0542 189.81 19.4842 210.41 24.7442 238.85Z" fill="#EFA08D"/>
<path d="M42.6837 55.43L47.2836 58.14L53.2836 61.65L88.2037 28.65C88.2037 28.65 90.0637 18.73 79.3737 7.94999C74.6437 3.18999 67.8737 0.759998 60.9337 0.239998C51.5537 -0.460002 41.9337 2.31999 36.5637 7.52999C36.3573 7.72889 36.1036 7.8717 35.8265 7.94485C35.5494 8.01799 35.2581 8.01904 34.9805 7.94788C34.7029 7.87673 34.4482 7.73572 34.2404 7.53831C34.0327 7.34089 33.8789 7.09363 33.7936 6.82C33.7106 6.56449 33.6438 6.30395 33.5936 6.03999C33.5633 5.87927 33.4845 5.7317 33.3678 5.61716C33.2511 5.50262 33.102 5.42662 32.9407 5.39938C32.7795 5.37214 32.6138 5.39498 32.4659 5.46482C32.318 5.53466 32.1951 5.64814 32.1137 5.78999C27.0837 14.76 16.7437 39.48 42.6837 55.43V55.43Z" fill="#362808"/>
<path d="M42.683 55.43L47.283 58.14C49.7221 55.2253 51.7416 51.9839 53.283 48.51C63.353 26.67 44.473 28.23 45.713 15.75C46.953 3.26998 60.853 0.219978 60.853 0.219978C51.473 -0.480022 41.853 2.29997 36.483 7.50997C36.2767 7.70887 36.0229 7.85168 35.7458 7.92483C35.4688 7.99797 35.1776 7.99902 34.9 7.92786C34.6224 7.85671 34.3675 7.71572 34.1598 7.5183C33.952 7.32089 33.7982 7.07361 33.713 6.79998C33.6299 6.54447 33.5632 6.28394 33.5131 6.01998C33.4828 5.85927 33.4039 5.7117 33.2872 5.59716C33.1704 5.48262 33.0214 5.40661 32.8602 5.37937C32.6989 5.35213 32.5331 5.37496 32.3853 5.4448C32.2374 5.51464 32.1144 5.62814 32.033 5.76998C27.083 14.76 16.743 39.48 42.683 55.43V55.43Z" fill="#2B1F04"/>
<path d="M85.7434 31.7799C85.7434 31.7799 85.4434 25.3799 88.9934 26.2999C92.5434 27.2199 97.4134 40.8099 91.8334 43.1399C86.2534 45.4699 85.7434 31.7799 85.7434 31.7799V31.7799Z" fill="#EA8575"/>
<path d="M49.4845 55.83C49.4845 55.83 42.3846 51.47 40.1446 55.02C37.9046 58.57 48.2646 71.56 56.3846 69.43C64.5046 67.3 49.4845 55.83 49.4845 55.83Z" fill="#EA8575"/>
<path d="M44.7429 52.2899L52.9929 67.4299C57.3405 75.4223 64.6225 81.4136 73.3029 84.1399C75.8102 84.9381 78.4678 85.1477 81.0692 84.7523C83.6707 84.3568 86.146 83.3671 88.3029 81.8598C90.1623 80.5721 91.7487 78.9294 92.9706 77.0261C94.1926 75.1228 95.026 72.9966 95.4229 70.7698C97.471 59.2526 95.716 47.3817 90.4229 36.9499L83.0328 22.3799C82.3853 21.146 81.3471 20.1616 80.0805 19.5808C78.8138 19 77.3903 18.8554 76.0328 19.1699C72.1667 19.8645 68.1889 19.5932 64.4529 18.3799C63.7646 18.165 63.0194 18.229 62.3778 18.5582C61.7363 18.8874 61.2497 19.4554 61.0229 20.1399C58.4829 28.1399 50.6529 39.3899 46.7729 42.4399L46.6429 42.5499C45.2417 43.6982 44.2852 45.2995 43.9384 47.0776C43.5915 48.8557 43.876 50.6991 44.7429 52.2899V52.2899Z" fill="#EFA08D"/>
<path d="M24.8237 238.92C25.8637 240.987 26.9304 242.987 28.0237 244.92C35.7137 258.77 54.7737 258.92 63.9437 246.02C67.1005 241.57 69.9825 236.931 72.5737 232.13C83.2237 212.54 91.4537 187.13 97.3237 154.02C93.6237 171.83 84.9937 201.23 65.7937 224.41C37.2037 259 25.5837 240.24 24.8237 238.92Z" fill="#ED8B7B"/>
<path d="M44.7442 52.2899L52.9942 67.4299C57.3418 75.4223 64.6239 81.4136 73.3042 84.1399C75.8115 84.9381 78.4691 85.1477 81.0706 84.7523C83.672 84.3568 86.1473 83.3671 88.3042 81.8598C56.4642 82.4498 56.5142 49.5499 61.8142 38.2399C67.1142 26.9299 64.4242 18.3799 64.4242 18.3799C63.7359 18.165 62.9907 18.229 62.3492 18.5582C61.7076 18.8874 61.221 19.4554 60.9942 20.1399C58.4542 28.1399 50.6242 39.3899 46.7442 42.4399L46.6142 42.5499C45.218 43.7022 44.2673 45.3054 43.926 47.0833C43.5846 48.8611 43.874 50.7024 44.7442 52.2899V52.2899Z" fill="#ED8B7B"/>
<defs>
<linearGradient id="paint0_linear" x1="109.427" y1="656.84" x2="109.427" y2="672.961" gradientUnits="userSpaceOnUse">
<stop stop-color="#5986FB"/>
<stop offset="1" stop-color="#2D4EF5"/>
</linearGradient>
<linearGradient id="paint1_linear" x1="257.544" y1="55.1001" x2="257.544" y2="353.99" gradientUnits="userSpaceOnUse">
<stop stop-color="#5986FB"/>
<stop offset="1" stop-color="#2D4EF5"/>
</linearGradient>
<linearGradient id="paint2_linear" x1="104.771" y1="123.09" x2="104.771" y2="278.81" gradientUnits="userSpaceOnUse">
<stop stop-color="#507AE9"/>
<stop offset="1" stop-color="#2340D6"/>
</linearGradient>
<linearGradient id="paint3_linear" x1="58.0132" y1="95.54" x2="58.0132" y2="238.85" gradientUnits="userSpaceOnUse">
<stop stop-color="#5986FB"/>
<stop offset="1" stop-color="#2D4EF5"/>
</linearGradient>
<linearGradient id="paint4_linear" x1="56.6343" y1="95.54" x2="56.6343" y2="238.84" gradientUnits="userSpaceOnUse">
<stop stop-color="#507AE9"/>
<stop offset="1" stop-color="#2340D6"/>
</linearGradient>
</defs>
</svg>

<svg width="276" height="673" fill="none" xmlns="http://www.w3.org/2000/svg"><path d="M94.394 656.84h13.67l27.08-125.31 17.07-79s20.08-17 30.13-29.5a43.842 43.842 0 0 0 4.53-8.43c12.09-30.31-24.51-53.39-53.31-61-29.82-1.06-49.92-4.6-59.82-6.85 0 .49 0 1-.08 1.48-7.12 131.23 20.73 308.61 20.73 308.61z" fill="#162F71"/><path d="M77.384 671.19a4.118 4.118 0 0 0 3.48 1.77h24.54a4.01 4.01 0 0 0 2.992-1.319 3.992 3.992 0 0 0 1.008-3.111l-.1-.88-1.21-10.81h-13.67l-15.5 8.09a4.237 4.237 0 0 0-2.258 4.591 4.24 4.24 0 0 0 .718 1.669z" fill="url(#paint0_linear)"/><path d="M91.494 658.38l3.61 4.19a1.281 1.281 0 0 1-.35 1.95l-1.59.89a1.282 1.282 0 0 1-1.61-.32l-3.5-4.3a1.28 1.28 0 0 1 .4-1.94l1.48-.77a1.277 1.277 0 0 1 1.56.3zm-5.54 2.75l3.61 4.18a1.285 1.285 0 0 1 .318 1.086 1.274 1.274 0 0 1-.668.914l-1.59.88a1.284 1.284 0 0 1-1.61-.31l-3.5-4.3a1.29 1.29 0 0 1 .4-1.95l1.48-.76a1.29 1.29 0 0 1 1.56.26z" fill="#fff"/><path d="M104.424 671.57a3.78 3.78 0 0 0 .26 1.39h.72a4.01 4.01 0 0 0 2.992-1.32 3.989 3.989 0 0 0 1.008-3.11l-.1-.88a3.825 3.825 0 0 0-.84-.09 3.998 3.998 0 0 0-4 3.63c-.03.12-.04.25-.04.38z" fill="#60424C"/><path d="M77.384 671.19a4.118 4.118 0 0 0 3.48 1.77h24.54a4.006 4.006 0 0 0 3.32-1.77h-31.34z" fill="#60424C"/><path d="M135.145 531.53l17.069-79s20.081-17 30.131-29.5a43.952 43.952 0 0 0 4.53-8.43c-10.69-19.15-18.241-6-55.521-14.79 0 .02 12.081 48.86 3.791 131.72z" fill="#CA754F"/><path d="M56.624 171.86l7 26.6 8.92 33.71a439.21 439.21 0 0 1 2.82 46.64c.27 19-.25 41.35-1.66 67.94 9.91 2.21 30 5.79 59.83 6.91 18.757.648 37.535.341 56.26-.92 18.47-1.19 39-3.35 61.44-6.82a574.23 574.23 0 0 0 6.31-1s-49.51-199.71-133.88-289.82c0 0-64.14 13.15-102 40.41-9.06 23.04 4.08 74.05 34.96 76.35z" fill="url(#paint1_linear)"/><path d="M90.124 131.7s-14.66 21.26-34.32 28.13a3.79 3.79 0 0 0-2.18 5.23c5 10.23 17.58 38.57 19 67.11l17.5-100.47z" fill="#186CDB"/><path d="M63.653 198.46l8.92 33.71a439.247 439.247 0 0 1 2.82 46.64c35.35-65.06 28.92-144.17 28.92-144.17l-1.16-11.55-17.41 36.07-22.09 39.3z" fill="url(#paint2_linear)"/><path d="M109.394 342.84c7.57 22.88 124.44 314 124.44 314h13.67l-7.76-175.29-2.27-50.88s23.72-49.64 5.8-96.21a88.235 88.235 0 0 0-2.05-4.91 46.672 46.672 0 0 0-9.94 2.68c-12.58 4.91-21.34 14.09-32 18.32a30.657 30.657 0 0 1-9.44 2.19c-11.52.75-29.18-2-45.55-4.75-14.23-2.42-27.48-4.88-34.9-5.15z" fill="#DEA379"/><path d="M184.743 367.9c51.18 14.24 52.69 62.77 52.69 62.77s23.72-49.64 5.8-96.21l-12-2.23-14.42-2.68-17.56 21-14.51 17.35z" fill="#CA754F"/><path d="M276 24a6 6 0 0 0-6-6H109a6 6 0 0 0-6 6v647h173V24z" fill="#fff"/><path d="M90.124 131.7l1.6-9.87a21.367 21.367 0 0 1 9.43-14.49l5.33-3.46a2.638 2.638 0 0 1 4.008 1.566 2.632 2.632 0 0 1-.118 1.644l-4.06 10s5 15.52-6.43 21.08l-9.76-6.47z" fill="#EFA08D"/><path d="M14.914 216.55a231.022 231.022 0 0 0 9.87 22.3c3.34-.088 6.65-.65 9.83-1.67a27.867 27.867 0 0 0 12.61-8.43c16.12-18.73 9.4-56.89 9.4-56.89-3.87-8.81-8.2-17.21-12.85-26.32a516.531 516.531 0 0 1-22.09-50c-2.06 1.48-4.03 3-5.91 4.56-24.09 19.96-17.48 73.12-.86 116.45z" fill="url(#paint3_linear)"/><path d="M15.744 100.1a107.2 107.2 0 0 1 5.91-4.56c-1.27 1.07-30.7 26.91-1.75 92.51a8.754 8.754 0 0 0 6.027 4.966 8.754 8.754 0 0 0 7.593-1.826l23.11-19.33-9.4 56.89a27.995 27.995 0 0 1-12.6 8.42l-.28.08c-.54.167-1.09.327-1.65.48l-.49.12c-.69.17-1.39.32-2.12.45-.12 0-.26 0-.39.06-.62.1-1.25.18-1.9.25l-.61.07c-.78.07-1.57.13-2.39.16a231.022 231.022 0 0 1-9.87-22.3c-16.64-43.32-23.25-96.48.81-116.44z" fill="url(#paint4_linear)"/><path d="M24.744 238.85v.07a140.015 140.015 0 0 0 3.2 6c7.69 13.85 26.75 14 35.92 1.1a133.925 133.925 0 0 0 8.63-13.89c10.65-19.59 18.88-45 24.75-78.11a528.84 528.84 0 0 0 2.56-15.91l-9.76-6.45a153.685 153.685 0 0 1-33.5 40.16c-.66.56-1.34 1.11-2 1.65-20.49 16.34-35.06 36.94-29.8 65.38z" fill="#EFA08D"/><path d="M42.684 55.43l4.6 2.71 6 3.51 34.92-33s1.86-9.92-8.83-20.7c-4.73-4.76-11.5-7.19-18.44-7.71-9.38-.7-19 2.08-24.37 7.29a1.68 1.68 0 0 1-2.77-.71 6.388 6.388 0 0 1-.2-.78.8.8 0 0 0-1.48-.25c-5.03 8.97-15.37 33.69 10.57 49.64z" fill="#362808"/><path d="M42.683 55.43l4.6 2.71a40.773 40.773 0 0 0 6-9.63c10.07-21.84-8.81-20.28-7.57-32.76C46.953 3.27 60.853.22 60.853.22c-9.38-.7-19 2.08-24.37 7.29a1.68 1.68 0 0 1-2.77-.71 6.35 6.35 0 0 1-.2-.78.8.8 0 0 0-1.48-.25c-4.95 8.99-15.29 33.71 10.65 49.66z" fill="#2B1F04"/><path d="M85.743 31.78s-.3-6.4 3.25-5.48c3.55.92 8.42 14.51 2.84 16.84s-6.09-11.36-6.09-11.36zM49.484 55.83s-7.1-4.36-9.34-.81c-2.24 3.55 8.12 16.54 16.24 14.41 8.12-2.13-6.9-13.6-6.9-13.6z" fill="#EA8575"/><path d="M44.743 52.29l8.25 15.14a35.09 35.09 0 0 0 20.31 16.71 17.12 17.12 0 0 0 15-2.28 17.15 17.15 0 0 0 7.12-11.09 53.89 53.89 0 0 0-5-33.82l-7.39-14.57a6.3 6.3 0 0 0-7-3.21 23.84 23.84 0 0 1-11.58-.79 2.75 2.75 0 0 0-3.43 1.76c-2.54 8-10.37 19.25-14.25 22.3l-.13.11a7.78 7.78 0 0 0-1.9 9.74z" fill="#EFA08D"/><path d="M24.824 238.92a140.015 140.015 0 0 0 3.2 6c7.69 13.85 26.75 14 35.92 1.1a134.031 134.031 0 0 0 8.63-13.89c10.65-19.59 18.88-45 24.75-78.11-3.7 17.81-12.33 47.21-31.53 70.39-28.59 34.59-40.21 15.83-40.97 14.51zm19.92-186.63l8.25 15.14a35.09 35.09 0 0 0 20.31 16.71 17.121 17.121 0 0 0 15-2.28c-31.84.59-31.79-32.31-26.49-43.62 5.3-11.31 2.61-19.86 2.61-19.86a2.75 2.75 0 0 0-3.43 1.76c-2.54 8-10.37 19.25-14.25 22.3l-.13.11a7.78 7.78 0 0 0-1.87 9.74z" fill="#ED8B7B"/><defs><linearGradient id="paint0_linear" x1="109.427" y1="656.84" x2="109.427" y2="672.961" gradientUnits="userSpaceOnUse"><stop stop-color="#5986FB"/><stop offset="1" stop-color="#2D4EF5"/></linearGradient><linearGradient id="paint1_linear" x1="257.544" y1="55.1" x2="257.544" y2="353.99" gradientUnits="userSpaceOnUse"><stop stop-color="#5986FB"/><stop offset="1" stop-color="#2D4EF5"/></linearGradient><linearGradient id="paint2_linear" x1="104.771" y1="123.09" x2="104.771" y2="278.81" gradientUnits="userSpaceOnUse"><stop stop-color="#507AE9"/><stop offset="1" stop-color="#2340D6"/></linearGradient><linearGradient id="paint3_linear" x1="58.013" y1="95.54" x2="58.013" y2="238.85" gradientUnits="userSpaceOnUse"><stop stop-color="#5986FB"/><stop offset="1" stop-color="#2D4EF5"/></linearGradient><linearGradient id="paint4_linear" x1="56.634" y1="95.54" x2="56.634" y2="238.84" gradientUnits="userSpaceOnUse"><stop stop-color="#507AE9"/><stop offset="1" stop-color="#2340D6"/></linearGradient></defs></svg>
